svg/press/kryptomagazin.svg

<?xml version="1.0" encoding="UTF-8"?>
<svg width="70px" height="24px" viewBox="0 0 70 24" version="1.1" xmlns="http://www.w3.org/2000/svg" xmlns:xlink="http://www.w3.org/1999/xlink">
    <title>press/kryptomagazin</title>
    <g id="press/kryptomagazin" stroke="none" stroke-width="1" fill="none" fill-rule="evenodd">
        <path d="M42.4039024,0.140487805 L42.300878,0.140487805 L40.9170732,0.117073171 L40.9170732,0.139317073 L36.7609756,0.139317073 L36.7609756,15.3588293 L39.6878049,15.3588293 L39.6878049,10.2076098 L40.9170732,10.2076098 L40.9170732,10.2298537 L42.300878,10.2076098 L42.4039024,10.2076098 C45.1841847,10.2076098 47.4380488,7.95374567 47.4380488,5.17346341 C47.4380488,2.39318116 45.1841847,0.139317073 42.4039024,0.139317073 L42.4039024,0.140487805 Z M42.3570732,7.28195122 L39.6878049,7.28195122 L39.6878049,3.06731707 L42.3570732,3.06731707 C43.5209123,3.06731707 44.4643902,4.01079506 44.4643902,5.17463415 C44.4643902,6.33847323 43.5209123,7.28195122 42.3570732,7.28195122 L42.3570732,7.28195122 Z" id="Shape" fill="#F98C08" fill-rule="nonzero"></path>
        <path d="M34.4195122,3.12468293 L34.4195122,0.0222439024 L31.4926829,0.0222439024 L31.4926829,4.56585366 L31.4926829,4.56585366 C31.4926829,5.72969274 30.5492049,6.67317073 29.3853659,6.67317073 C28.2215268,6.67317073 27.2780488,5.72969274 27.2780488,4.56585366 L27.2780488,4.56585366 L27.2780488,0.0222439024 L24.3512195,0.0222439024 L24.3512195,3.12468293 L24.3289756,3.12468293 L24.3512195,4.50497561 L24.3512195,4.58809756 L24.3512195,4.58809756 L24.3512195,4.6115122 C24.3968385,6.7709206 25.807225,8.66365939 27.8634146,9.32487805 L27.8634146,15.3588293 L30.7902439,15.3588293 L30.7902439,9.36585366 C32.9054223,8.74288781 34.3736345,6.82189783 34.4195122,4.61736585 L34.4195122,4.59395122 L34.4195122,4.59395122 L34.4195122,4.512 L34.4417561,3.13053659 L34.4195122,3.12468293 Z" id="Path" fill="#F98C08" fill-rule="nonzero"></path>
        <path d="M69.4243902,8.97834146 L69.4243902,6.51980488 L69.4466341,6.51980488 L69.4243902,5.1395122 L69.4243902,5.05639024 L69.4243902,5.05639024 L69.4243902,5.03414634 C69.4243902,2.25386409 67.1705262,0 64.3902439,0 C61.6099616,0 59.3560976,2.25386409 59.3560976,5.03414634 L59.3560976,5.05756098 L59.3560976,5.05756098 L59.3560976,5.1395122 L59.3338537,6.52097561 L59.3560976,6.52097561 L59.3560976,8.9795122 L59.3338537,8.9795122 L59.3560976,10.3609756 L59.3560976,10.4429268 L59.3560976,10.4429268 L59.3560976,10.4663415 C59.3560976,13.2466237 61.6099616,15.5004878 64.3902439,15.5004878 C67.1705262,15.5004878 69.4243902,13.2466237 69.4243902,10.4663415 L69.4243902,10.4429268 L69.4243902,10.4429268 L69.4243902,10.3598049 L69.4466341,8.9795122 L69.4243902,8.97834146 Z M64.3902439,12.4905366 C63.2424763,12.4857248 62.3076752,11.5670231 62.2829268,10.4195122 L62.2829268,10.4195122 L62.2829268,5.07980488 L62.2829268,5.07980488 C62.2829268,3.9159658 63.2264048,2.9724878 64.3902439,2.9724878 C65.554083,2.9724878 66.497561,3.9159658 66.497561,5.07980488 L66.497561,5.07980488 L66.497561,10.4195122 L66.497561,10.4195122 C66.4728126,11.5670231 65.5380115,12.4857248 64.3902439,12.4905366 Z" id="Shape" fill="#F98C08" fill-rule="nonzero"></path>
        <polygon id="Path" fill="#F98C08" fill-rule="nonzero" points="48.7609756 3.12468293 51.8634146 3.12468293 51.8634146 15.3588293 54.7902439 15.3588293 54.7902439 3.12468293 58.0097561 3.12468293 58.0097561 0.197853659 48.7609756 0.197853659"></polygon>
        <path d="M2.92682927,10.1127805 L3.10360976,9.96409756 L9.09541463,15.3588293 L13.4692683,15.3588293 L5.36663415,8.064 L11.454439,2.94907317 L17.8887805,2.94907317 C19.0526196,2.94907317 19.9960976,3.89255116 19.9960976,5.05639024 C19.9960976,6.22022933 19.0526196,7.16370732 17.8887805,7.16370732 L11.8243902,7.16370732 L11.8243902,10.0905366 L11.9414634,10.1713171 L18.3933659,15.3588293 L23.0634146,15.3588293 L16.5400976,10.1116098 L17.8279024,10.0905366 L17.9309268,10.0905366 C20.7112091,10.0905366 22.9650732,7.8366725 22.9650732,5.05639024 C22.9650732,2.27610799 20.7112091,0.0222439024 17.9309268,0.0222439024 L17.8279024,0.0222439024 L16.4487805,0 L16.4487805,0.0222439024 L10.3609756,0.0222439024 L2.92682927,6.29034146 L2.92682927,0.0222439024 L0,0.0222439024 L0,15.3588293 L2.92682927,15.3588293 L2.92682927,10.1127805 Z" id="Path" fill="#F98C08" fill-rule="nonzero"></path>
        <polygon id="Path" fill="#4D4D4D" fill-rule="nonzero" points="5.24839024 23.9227317 5.24839024 19.2948293 3.25814634 22.8433171 2.8284878 22.8433171 0.831219512 19.2948293 0.831219512 23.9227317 0.0725853659 23.9227317 0.0725853659 17.9379512 0.873365854 17.9379512 3.04390244 21.8236098 5.21912195 17.9379512 6.01170732 17.9379512 6.01170732 23.9227317"></polygon>
        <path d="M12.1521951,23.9227317 L14.6107317,17.9379512 L15.2347317,17.9379512 L17.6874146,23.9227317 L16.878439,23.9227317 L16.1701463,22.1666341 L13.6600976,22.1666341 L12.9576585,23.9227317 L12.1521951,23.9227317 Z M14.9244878,18.8136585 L13.8146341,21.5789268 L16.0039024,21.5789268 L14.9244878,18.8136585 Z" id="Shape" fill="#4D4D4D" fill-rule="nonzero"></path>
        <path d="M28.0659512,23.1125854 C27.5383415,23.6807805 26.9315122,23.964878 26.2454634,23.964878 C25.8601899,23.9679011 25.4798722,23.8779421 25.1367805,23.7026341 C24.8019006,23.5327404 24.5029678,23.2997954 24.2563902,23.0165854 C24.0070615,22.7277232 23.8090746,22.3982729 23.6710244,22.0425366 C23.5292728,21.6827538 23.4565899,21.2994808 23.4567405,20.9127805 C23.4548017,20.5193999 23.5262695,20.1291061 23.6675122,19.7619512 C23.8028638,19.409131 24.0012084,19.0838458 24.252878,18.8019512 C24.5001115,18.523553 24.801194,18.2981393 25.1379512,18.1393171 C25.4856433,17.9755115 25.8658163,17.8922736 26.2501463,17.8958049 C26.8284878,17.8958049 27.3045854,18.0163902 27.678439,18.257561 C28.0437711,18.4894499 28.3395024,18.8159275 28.5342439,19.2023415 L27.948878,19.6062439 C27.7922922,19.2824972 27.5428692,19.0126965 27.2323902,18.8312195 C26.9262953,18.6605085 26.5806878,18.5732991 26.2302439,18.5783415 C25.9425235,18.5741562 25.6583461,18.6421817 25.4037073,18.7761951 C25.1599985,18.9059471 24.9449761,19.0835397 24.7715122,19.2983415 C24.5932115,19.522591 24.4560662,19.7766666 24.366439,20.0487805 C24.2713796,20.3329545 24.2231409,20.6306901 24.2236098,20.9303415 C24.2219608,21.2395936 24.2763001,21.5465907 24.384,21.8364878 C24.4847713,22.1100409 24.6329921,22.3636808 24.8218537,22.5857561 C25.0039153,22.7991495 25.2278574,22.972884 25.4798049,23.0961951 C25.7369195,23.2208538 26.0194459,23.2841718 26.3051707,23.2811707 C26.956878,23.2811707 27.5422439,22.9666341 28.0612683,22.337561 L28.0612683,21.5110244 L26.7734634,21.5110244 L26.7734634,20.9385366 L28.7063415,20.9385366 L28.7063415,23.9227317 L28.0659512,23.9227317 L28.0659512,23.1125854 Z" id="Path" fill="#4D4D4D" fill-rule="nonzero"></path>
        <path d="M34.590439,23.9227317 L37.0489756,17.9379512 L37.6729756,17.9379512 L40.1256585,23.9227317 L39.3166829,23.9227317 L38.6083902,22.1666341 L36.0995122,22.1666341 L35.3970732,23.9227317 L34.590439,23.9227317 Z M37.3639024,18.8136585 L36.2505366,21.5789268 L38.4421463,21.5789268 L37.3639024,18.8136585 Z" id="Shape" fill="#4D4D4D" fill-rule="nonzero"></path>
        <polygon id="Path" fill="#4D4D4D" fill-rule="nonzero" points="45.7838049 23.3326829 49.6472195 18.6122927 45.8599024 18.6122927 45.8599024 17.9379512 50.5299512 17.9379512 50.5299512 18.5233171 46.7367805 23.2437073 50.5299512 23.2437073 50.5299512 23.9180488 45.7838049 23.9180488"></polygon>
        <polygon id="Path" fill="#4D4D4D" fill-rule="nonzero" points="56.8600976 23.9227317 56.8600976 17.9461463 57.6187317 17.9461463 57.6187317 23.9227317"></polygon>
        <polygon id="Path" fill="#4D4D4D" fill-rule="nonzero" points="65.1465366 19.3533659 65.1465366 23.9192195 64.3902439 23.9192195 64.3902439 17.9379512 64.9756098 17.9379512 68.6868293 22.595122 68.6868293 17.9461463 69.4454634 17.9461463 69.4454634 23.9227317 68.8050732 23.9227317"></polygon>
    </g>
</svg>

<svg height="24" width="70" xmlns="http://www.w3.org/2000/svg"><g fill="none"><path d="M42.404.14H42.3L40.917.117V.14h-4.156v15.22h2.927v-5.151h1.23v.022l1.383-.022h.103a5.034 5.034 0 1 0 0-10.069zm-.047 7.142h-2.67V3.067h2.67a2.107 2.107 0 0 1 0 4.215zM34.42 3.125V.022h-2.927v4.544a2.107 2.107 0 1 1-4.215 0V.022h-2.927v3.103h-.022l.022 1.38v.107a5.063 5.063 0 0 0 3.512 4.713v6.034h2.927V9.366a5.06 5.06 0 0 0 3.63-4.749v-.105l.022-1.381zm35.004 5.853V6.52h.023l-.023-1.38v-.106a5.034 5.034 0 1 0-10.068 0v.106l-.022 1.381h.022V8.98h-.022l.022 1.381v.105a5.034 5.034 0 1 0 10.068 0v-.106l.023-1.38zm-5.034 3.513a2.117 2.117 0 0 1-2.107-2.071V5.08a2.107 2.107 0 0 1 4.215 0v5.34a2.117 2.117 0 0 1-2.108 2.07zM48.761 3.125h3.102v12.234h2.927V3.125h3.22V.198H48.76zM2.927 10.113l.177-.149 5.991 5.395h4.374L5.367 8.064l6.087-5.115h6.435a2.107 2.107 0 1 1 0 4.215h-6.065v2.927l.117.08 6.452 5.188h4.67l-6.523-5.247 1.288-.021h.103a5.034 5.034 0 1 0 0-10.069h-.103L16.448 0v.022h-6.087L2.927 6.29V.022H0V15.36h2.927v-5.246z" fill="#f98c08"/><g fill="#4d4d4d"><path d="M5.248 23.923v-4.628l-1.99 3.548h-.43L.831 19.295v4.628H.073v-5.985h.8l2.17 3.886 2.176-3.886h.793v5.985zm6.904 0l2.459-5.985h.624l2.452 5.985h-.809l-.708-1.756h-2.51l-.702 1.756zm2.772-5.11l-1.11 2.766h2.19l-1.08-2.765zm13.142 4.3c-.528.568-1.134.852-1.82.852a2.395 2.395 0 0 1-1.11-.262 2.917 2.917 0 0 1-.88-.686 3.34 3.34 0 0 1-.585-.974 3.162 3.162 0 0 1 .582-3.24c.247-.28.548-.505.885-.664a2.555 2.555 0 0 1 1.112-.243c.578 0 1.055.12 1.428.362.366.231.662.558.856.944l-.585.404a1.811 1.811 0 0 0-.717-.775 1.998 1.998 0 0 0-1.002-.253 1.721 1.721 0 0 0-.826.198c-.244.13-.459.308-.632.522a2.425 2.425 0 0 0-.406.75 2.765 2.765 0 0 0-.142.882 2.54 2.54 0 0 0 .598 1.656c.182.213.406.387.658.51.257.125.54.188.825.185.652 0 1.237-.314 1.756-.943v-.827h-1.288v-.572h1.933v2.984h-.64zm6.524.81l2.459-5.985h.624l2.453 5.985h-.81l-.708-1.756H36.1l-.703 1.756zm2.774-5.11L36.25 21.58h2.191l-1.078-2.765zm8.42 4.52l3.863-4.72H45.86v-.675h4.67v.585l-3.793 4.72h3.793v.675h-4.746zm11.076.59v-5.977h.759v5.977zm8.287-4.57v4.566h-.757v-5.981h.586l3.71 4.657v-4.649h.76v5.977h-.64z"/></g></g></svg>
